logos/webhooks.svg

<?xml version="1.0" encoding="UTF-8" standalone="no"?>
<svg width="256px" height="239px" viewBox="0 0 256 239" version="1.1" xmlns="http://www.w3.org/2000/svg" xmlns:xlink="http://www.w3.org/1999/xlink" preserveAspectRatio="xMidYMid">
	<g>
		<path d="M119.540432,100.502743 C108.930124,118.338815 98.7646301,135.611455 88.3876025,152.753617 C85.7226696,157.154315 84.4040417,160.738531 86.5332204,166.333309 C92.4107024,181.787152 84.1193605,196.825836 68.5350381,200.908244 C53.8383677,204.759349 39.5192953,195.099955 36.6032893,179.365384 C34.0194114,165.437749 44.8274148,151.78491 60.1824106,149.608284 C61.4694072,149.424428 62.7821041,149.402681 64.944891,149.240571 C72.469175,136.623655 80.1773157,123.700312 88.3025935,110.073173 C73.611854,95.4654658 64.8677898,78.3885437 66.803227,57.2292132 C68.1712787,42.2715849 74.0527146,29.3462646 84.8033863,18.7517722 C105.393354,-1.53572199 136.805164,-4.82141828 161.048542,10.7510424 C184.333097,25.7086706 194.996783,54.8450075 185.906752,79.7822957 C179.052655,77.9239597 172.151111,76.049808 164.563565,73.9917997 C167.418285,60.1274266 165.306899,47.6765751 155.95591,37.0109123 C149.777932,29.9690049 141.850349,26.2780332 132.835442,24.9178894 C114.764113,22.1877169 97.0209573,33.7983633 91.7563309,51.5355878 C85.7800012,71.6669027 94.8245623,88.1111998 119.540432,100.502743 L119.540432,100.502743 Z" fill="#C73A63"></path>
		<path d="M149.841194,79.4106285 C157.316054,92.5969067 164.905578,105.982857 172.427885,119.246236 C210.44865,107.483365 239.114472,128.530009 249.398582,151.063322 C261.81978,178.282014 253.328765,210.520191 228.933162,227.312431 C203.893073,244.551464 172.226236,241.605803 150.040866,219.46195 C155.694953,214.729124 161.376716,209.974552 167.44794,204.895759 C189.360489,219.088306 208.525074,218.420096 222.753207,201.614016 C234.885769,187.277151 234.622834,165.900356 222.138374,151.863988 C207.730339,135.66681 188.431321,135.172572 165.103273,150.721309 C155.426087,133.553447 145.58086,116.521995 136.210101,99.2295848 C133.05093,93.4015266 129.561608,90.0209366 122.440622,88.7873178 C110.547271,86.7253555 102.868785,76.5124151 102.408155,65.0698097 C101.955433,53.7537294 108.621719,43.5249733 119.04224,39.5394355 C129.363912,35.5914599 141.476705,38.7783085 148.419765,47.554004 C154.093621,54.7244134 155.896602,62.7943365 152.911402,71.6372484 C152.081082,74.1025091 151.00562,76.4886916 149.841194,79.4106285 L149.841194,79.4106285 Z" fill="#4B4B4B"></path>
		<path d="M167.706921,187.209935 L121.936499,187.209935 C117.54964,205.253587 108.074103,219.821756 91.7464461,229.085759 C79.0544063,236.285822 65.3738898,238.72736 50.8136292,236.376762 C24.0061432,232.053165 2.08568567,207.920497 0.156179306,180.745298 C-2.02835403,149.962159 19.1309765,122.599149 47.3341915,116.452801 C49.2814904,123.524363 51.2485589,130.663141 53.1958579,137.716911 C27.3195169,150.919004 18.3639187,167.553089 25.6054984,188.352614 C31.9811726,206.657224 50.0900643,216.690262 69.7528413,212.809503 C89.8327554,208.847688 99.9567329,192.160226 98.7211371,165.37844 C117.75722,165.37844 136.809118,165.180745 155.847178,165.475311 C163.280522,165.591951 169.019617,164.820939 174.620326,158.267339 C183.840836,147.48306 200.811003,148.455721 210.741239,158.640984 C220.88894,169.049642 220.402609,185.79839 209.663799,195.768166 C199.302587,205.38802 182.933414,204.874012 173.240413,194.508846 C171.247644,192.37176 169.677943,189.835329 167.706921,187.209935 L167.706921,187.209935 Z" fill="#4A4A4A"></path>
	</g>
</svg>

<svg width="256" height="239" xmlns="http://www.w3.org/2000/svg" preserveAspectRatio="xMidYMid">
	<path d="M119.54 100.503c-10.61 17.836-20.775 35.108-31.152 52.25-2.665 4.401-3.984 7.986-1.855 13.58 5.878 15.454-2.414 30.493-17.998 34.575-14.697 3.851-29.016-5.808-31.932-21.543-2.584-13.927 8.224-27.58 23.58-29.757 1.286-.184 2.6-.205 4.762-.367l23.358-39.168C73.612 95.465 64.868 78.39 66.803 57.23c1.368-14.957 7.25-27.883 18-38.477 20.59-20.288 52.002-23.573 76.246-8.001 23.284 14.958 33.948 44.094 24.858 69.031-6.854-1.858-13.756-3.732-21.343-5.79 2.854-13.865.743-26.315-8.608-36.981-6.178-7.042-14.106-10.733-23.12-12.093-18.072-2.73-35.815 8.88-41.08 26.618-5.976 20.13 3.069 36.575 27.784 48.967Z" fill="#C73A63"/>
	<path d="M149.841 79.41c7.475 13.187 15.065 26.573 22.587 39.836 38.02-11.763 66.686 9.284 76.97 31.817 12.422 27.219 3.93 59.457-20.465 76.25-25.04 17.238-56.707 14.293-78.892-7.851 5.654-4.733 11.336-9.487 17.407-14.566 21.912 14.192 41.077 13.524 55.305-3.282 12.133-14.337 11.87-35.714-.615-49.75-14.408-16.197-33.707-16.691-57.035-1.143-9.677-17.168-19.522-34.199-28.893-51.491-3.16-5.828-6.648-9.21-13.77-10.443-11.893-2.062-19.571-12.275-20.032-23.717-.453-11.316 6.214-21.545 16.634-25.53 10.322-3.949 22.435-.762 29.378 8.014 5.674 7.17 7.477 15.24 4.491 24.083-.83 2.466-1.905 4.852-3.07 7.774Z" fill="#4B4B4B"/>
	<path d="M167.707 187.21h-45.77c-4.387 18.044-13.863 32.612-30.19 41.876-12.693 7.2-26.373 9.641-40.933 7.29-26.808-4.323-48.728-28.456-50.658-55.63-2.184-30.784 18.975-58.147 47.178-64.293 1.947 7.071 3.915 14.21 5.862 21.264-25.876 13.202-34.832 29.836-27.59 50.636 6.375 18.304 24.484 28.337 44.147 24.457 20.08-3.962 30.204-20.65 28.968-47.432 19.036 0 38.088-.197 57.126.097 7.434.117 13.173-.654 18.773-7.208 9.22-10.784 26.191-9.811 36.121.374 10.148 10.409 9.662 27.157-1.077 37.127-10.361 9.62-26.73 9.106-36.424-1.26-1.992-2.136-3.562-4.673-5.533-7.298Z" fill="#4A4A4A"/>
</svg>
